app/images/angle-right-solid.svg

<svg xmlns="http://www.w3.org/2000/svg" width="9px" height="14px" viewBox="0 0 9 14" version="1.1"><g><path d="M 2.25 12.25 C 1.960938 12.25 1.675781 12.164062 1.453125 11.992188 C 1.015625 11.652344 1.015625 11.097656 1.453125 10.757812 L 6.285156 7 L 1.453125 3.242188 C 1.015625 2.902344 1.015625 2.347656 1.453125 2.003906 C 1.894531 1.664062 2.605469 1.664062 3.046875 2.003906 L 8.671875 6.378906 C 9.109375 6.722656 9.109375 7.277344 8.671875 7.617188 L 3.046875 11.992188 C 2.824219 12.164062 2.539062 12.25 2.25 12.25 Z M 2.25 12.25 "/></g></svg>

<svg xmlns="http://www.w3.org/2000/svg" width="9" height="14"><path d="M2.25 12.25c-.29 0-.574-.086-.797-.258-.437-.34-.437-.894 0-1.234L6.285 7 1.453 3.242c-.437-.34-.437-.894 0-1.238.442-.34 1.152-.34 1.594 0l5.625 4.375c.437.344.437.898 0 1.238l-5.625 4.375a1.305 1.305 0 01-.797.258zm0 0"/></svg>
